X:521
T: ROTH ROTH ROTH SIND ALLE MEINE KLEIDER
N: E1794
O: Europa, Mitteleuropa, Deutschland, Hessen, Kassel
R: Staende - Lied
M: 4/4
L: 1/16
K: G
 | B4B4B6G2 | A3AA2A2A4D4 |
B4B4B6G2 | A3AA2A2A4D4 |
B4B4d4z4 | A4A4d4z4 |
G4G4B2B2B4 | A3AA2F2G4z4

@@@ Tune index: 5205
